X: 34279
T: Rennies
R: jig
M: 6/8
K: Gmajor
GBd gge|gdB GBd|geg da2|GBd gge|gdB Bcd|edB AGA|GF^G:|
Bee ede|ef^ga Gd|ddB dGA|BdA eee|dee f^ga|dcB ABA|BF^G:|

